assets/Cook/Light/Flat/cook_flat_light.svg

<svg width="32" height="32" viewBox="0 0 32 32" fill="none" xmlns="http://www.w3.org/2000/svg">
<path d="M22.98 18L20.5 17.5L19 18L21 23L23 30H27V26.4983C27 23.0769 25.4261 20.0167 22.98 18Z" fill="#E6E6E6"/>
<path d="M9 30L11 24L9 18C6.55447 20.0279 5 23.0848 5 26.4983V30H9Z" fill="#E6E6E6"/>
<path d="M9 18L14 17L19 18C21.1767 18 23 19.796 23 22.0033V30H9V18Z" fill="#F4F4F4"/>
<path d="M22.9844 18H17.5C18.1748 18.4721 18.59 19.2351 18.59 20.12V21.79C17.1518 21.79 15.9829 20.623 15.98 19.1855C15.977 20.623 14.8082 21.79 13.37 21.79V20.12C13.37 19.2351 13.8252 18.4721 14.5 18H9L9.00339 17.9898C10.8995 16.4176 13.3291 15.47 15.98 15.47C18.6433 15.47 21.0845 16.4203 22.9844 18Z" fill="#F92F60"/>
<path d="M13.47 15.5599V12.6999H18.48V15.5599L20.37 14.9099C21.25 14.6099 21.83 13.7799 21.83 12.8599V10.1599C21.7718 10.1609 21.7137 10.1619 21.6555 10.163L21.79 7.96986C21.83 7.62986 21.84 7.28986 21.81 6.94986L21.74 6.10986H10.37L10.29 6.94986C10.26 7.28986 10.27 7.62986 10.3 7.96986L10.4601 10.4135L10.12 10.4199V12.8599C10.12 13.7899 10.71 14.6099 11.58 14.9099L13.47 15.5599Z" fill="#212121"/>
<path d="M12.5 10.5C12.5 11.3284 11.8284 12 11 12C10.1716 12 9.5 11.3284 9.5 10.5C9.5 9.67157 10.1716 9 11 9C11.8284 9 12.5 9.67157 12.5 10.5Z" fill="#F4C6AD"/>
<path d="M22.5 10.5C22.5 11.3284 21.8284 12 21 12C20.1716 12 19.5 11.3284 19.5 10.5C19.5 9.67157 20.1716 9 21 9C21.8284 9 22.5 9.67157 22.5 10.5Z" fill="#F4C6AD"/>
<path d="M17.1114 3.05005H14.8811C12.3821 3.05005 10.4904 5.16212 10.7791 7.78712L11.1575 13.6003C11.4164 15.5716 13.089 17.05 15.0604 17.05H16.0062H16.9521C18.9234 17.05 20.5961 15.5716 20.8549 13.6003L21.2133 7.78712C21.5419 5.28281 19.6203 3.05005 17.1114 3.05005Z" fill="#FFD7C2"/>
<path d="M16.0005 13.6457C15.45 13.6457 14.9301 13.5069 14.4918 13.2719C14.3389 13.1865 14.186 13.368 14.2777 13.5175C14.6447 14.1049 15.2767 14.5 16.0005 14.5C16.7243 14.5 17.3563 14.1049 17.7233 13.5175C17.8151 13.368 17.652 13.1972 17.5093 13.2719C17.0607 13.5069 16.551 13.6457 16.0005 13.6457Z" fill="#990838"/>
<path d="M12.2739 8.6583C12.3667 8.77731 12.5382 8.79884 12.6574 8.70666L12.7531 8.64385C12.8219 8.60255 12.9253 8.54711 13.0581 8.49467C13.3237 8.38978 13.7027 8.29838 14.158 8.35195C14.3082 8.36962 14.4443 8.26216 14.462 8.11193C14.4797 7.96169 14.3722 7.82557 14.222 7.8079C13.6573 7.74147 13.1863 7.85506 12.8569 7.98517C12.6921 8.05024 12.5618 8.11979 12.4712 8.17412C12.4259 8.20132 12.3904 8.22482 12.3652 8.24222C12.3527 8.25092 12.3427 8.25811 12.3354 8.26348L12.3265 8.27015L12.3235 8.2724L12.3224 8.27324L12.3216 8.27389C12.2023 8.36688 12.181 8.53899 12.2739 8.6583Z" fill="#212121"/>
<path d="M19.6465 8.2724L19.6482 8.27375C19.7675 8.36674 19.789 8.53899 19.696 8.6583C19.6033 8.77731 19.4311 8.79826 19.3118 8.70609L19.2169 8.64385C19.1481 8.60255 19.0447 8.54711 18.9119 8.49467C18.6463 8.38978 18.2673 8.29838 17.812 8.35195C17.6618 8.36962 17.5257 8.26216 17.508 8.11193C17.4903 7.96169 17.5978 7.82557 17.748 7.8079C18.3127 7.74147 18.7837 7.85506 19.1131 7.98517C19.2779 8.05024 19.4082 8.11979 19.4987 8.17412C19.5441 8.20132 19.5796 8.22482 19.6048 8.24222L19.6435 8.27015L19.6465 8.2724Z" fill="#212121"/>
<path d="M12.17 10.2699C12.32 9.64994 12.88 9.18994 13.55 9.18994C14.24 9.18994 14.82 9.67994 14.94 10.3299C14.97 10.4799 14.86 10.6099 14.71 10.6099H12.44C12.26 10.6099 12.12 10.4399 12.17 10.2699Z" fill="white"/>
<path d="M19.8 10.2699C19.65 9.64994 19.09 9.18994 18.42 9.18994C17.73 9.18994 17.16 9.67994 17.03 10.3399C17 10.4899 17.11 10.6199 17.26 10.6199H19.53C19.71 10.6199 19.84 10.4499 19.8 10.2699Z" fill="white"/>
<path d="M12.85 10.37C12.85 9.86996 13.26 9.45996 13.76 9.45996C14.26 9.45996 14.67 9.86996 14.67 10.37C14.67 10.45 14.66 10.53 14.64 10.61H12.88C12.86 10.53 12.85 10.45 12.85 10.37Z" fill="#7D4533"/>
<path d="M19.12 10.37C19.12 9.86996 18.71 9.45996 18.21 9.45996C17.71 9.45996 17.3 9.86996 17.3 10.37C17.3 10.45 17.31 10.53 17.33 10.61H19.09C19.11 10.53 19.12 10.45 19.12 10.37Z" fill="#7D4533"/>
<path d="M13.76 9.8501C14.05 9.8501 14.28 10.0801 14.28 10.3701C14.28 10.4601 14.26 10.5401 14.22 10.6101H13.3C13.26 10.5401 13.24 10.4601 13.24 10.3701C13.24 10.0801 13.47 9.8501 13.76 9.8501Z" fill="black"/>
<path d="M18.2099 9.8501C17.9199 9.8501 17.6899 10.0801 17.6899 10.3701C17.6899 10.4601 17.7199 10.5401 17.7499 10.6101H18.6699C18.7099 10.5401 18.7299 10.4601 18.7299 10.3701C18.7299 10.0801 18.4999 9.8501 18.2099 9.8501Z" fill="black"/>
<path d="M13.61 10.0101C13.61 10.0985 13.5384 10.1701 13.45 10.1701C13.3617 10.1701 13.29 10.0985 13.29 10.0101C13.29 9.92173 13.3617 9.8501 13.45 9.8501C13.5384 9.8501 13.61 9.92173 13.61 10.0101Z" fill="white"/>
<path d="M18.09 10.0101C18.09 10.0985 18.0184 10.1701 17.93 10.1701C17.8417 10.1701 17.77 10.0985 17.77 10.0101C17.77 9.92173 17.8417 9.8501 17.93 9.8501C18.0184 9.8501 18.09 9.92173 18.09 10.0101Z" fill="white"/>
<path d="M15.5938 10.284L15.0272 12.0337C14.9096 12.3919 15.1876 12.75 15.5831 12.75H16.4169C16.8124 12.75 17.0904 12.3919 16.9728 12.0337L16.4062 10.284C16.2886 9.90535 15.7221 9.90535 15.5938 10.284Z" fill="#E5AF93"/>
<path d="M10.57 2H21.39C23.08 2 23.92 4.04 22.73 5.23L22 6V7C22.01 7.2 21.8 7.38 21.6 7.38H10.35C10.15 7.38 10 7.2 10 7V6L9.23 5.23C8.04 4.04 8.88 2 10.57 2Z" fill="#E6E6E6"/>
<path d="M15.52 6.02992V3.62992C15.52 3.37992 15.72 3.16992 15.98 3.16992C16.23 3.16992 16.44 3.36992 16.44 3.62992V6.02992H15.52Z" fill="#D3D3D3"/>
<path d="M13.39 6.02993H12.48L11.68 3.74993C11.58 3.46993 11.79 3.17993 12.09 3.17993C12.27 3.17993 12.44 3.29993 12.5 3.46993L13.39 6.02993Z" fill="#D3D3D3"/>
<path d="M18.5599 6.02993H19.4699L20.2699 3.74993C20.3699 3.46993 20.1599 3.17993 19.8599 3.17993C19.6799 3.17993 19.5099 3.29993 19.4499 3.46993L18.5599 6.02993Z" fill="#D3D3D3"/>
<path d="M20.3101 21.6099C20.7243 21.6099 21.0601 21.2741 21.0601 20.8599C21.0601 20.4457 20.7243 20.1099 20.3101 20.1099C19.8958 20.1099 19.5601 20.4457 19.5601 20.8599C19.5601 21.2741 19.8958 21.6099 20.3101 21.6099Z" fill="#D3D3D3"/>
<path d="M20.3101 25.2399C20.7243 25.2399 21.0601 24.9041 21.0601 24.4899C21.0601 24.0757 20.7243 23.7399 20.3101 23.7399C19.8958 23.7399 19.5601 24.0757 19.5601 24.4899C19.5601 24.9041 19.8958 25.2399 20.3101 25.2399Z" fill="#D3D3D3"/>
<path d="M20.3101 28.8799C20.7243 28.8799 21.0601 28.5442 21.0601 28.1299C21.0601 27.7157 20.7243 27.3799 20.3101 27.3799C19.8958 27.3799 19.5601 27.7157 19.5601 28.1299C19.5601 28.5442 19.8958 28.8799 20.3101 28.8799Z" fill="#D3D3D3"/>
<path d="M27 23C27.55 23 28 23.4103 28 23.9119V26H26V23.9119C26.01 23.4103 26.45 23 27 23Z" fill="#F4C6AD"/>
<path d="M27.3201 16.16C27.0001 15.44 26.2801 14.98 25.4901 14.98C24.7001 14.98 23.9801 15.44 23.6601 16.16C23.2001 17.17 23.2001 18.33 23.6601 19.35C23.8101 19.68 24.0501 19.96 24.3301 20.17C24.6001 20.36 24.7701 20.67 24.7701 21.01V27.97C24.7701 28.36 25.0801 28.7 25.4701 28.71C25.8701 28.72 26.2001 28.39 26.2001 27.99V21C26.2001 20.67 26.3701 20.36 26.6401 20.16C26.9301 19.96 27.1601 19.68 27.3101 19.34C27.7701 18.33 27.7701 17.17 27.3201 16.16Z" fill="#F3C07B"/>
<path d="M25.49 15.6499C24.89 15.6499 24.35 15.9999 24.11 16.5399C23.77 17.2999 23.77 18.1799 24.11 18.9399C24.35 19.4799 24.89 19.8299 25.49 19.8299C26.09 19.8299 26.63 19.4799 26.87 18.9399C27.21 18.1799 27.21 17.2999 26.87 16.5399C26.62 15.9999 26.08 15.6499 25.49 15.6499Z" fill="#F3AD61"/>
<path d="M23.5091 25.5C23.5182 25.1 23.837 24.75 24.2105 24.75H27.2075C27.6447 24.75 28 25.14 28 25.62V29.13C28 29.61 27.6447 30 27.2075 30H24.2105C23.837 30 23.5182 29.69 23.5091 29.28C23.5 29.01 23.6184 28.77 23.8097 28.63C23.6184 28.5 23.5 28.27 23.5 28.01C23.5 27.75 23.6275 27.52 23.8097 27.39C23.6184 27.26 23.5 27.03 23.5 26.77C23.5 26.51 23.6275 26.28 23.8097 26.15C23.6275 26.01 23.5 25.77 23.5091 25.5Z" fill="#FFD7C2"/>
</svg>

<svg xmlns="http://www.w3.org/2000/svg" width="32" height="32" fill="none"><path fill="#E6E6E6" d="m22.98 18-2.48-.5-1.5.5 2 5 2 7h4v-3.502c0-3.421-1.574-6.481-4.02-8.498ZM9 30l2-6-2-6a11.015 11.015 0 0 0-4 8.498V30h4Z"/><path fill="#F4F4F4" d="m9 18 5-1 5 1c2.177 0 4 1.796 4 4.003V30H9V18Z"/><path fill="#F92F60" d="M22.984 18H17.5a2.548 2.548 0 0 1 1.09 2.12v1.67a2.612 2.612 0 0 1-2.61-2.604 2.612 2.612 0 0 1-2.61 2.604v-1.67c0-.885.455-1.648 1.13-2.12H9l.003-.01a10.893 10.893 0 0 1 6.977-2.52c2.663 0 5.104.95 7.004 2.53Z"/><path fill="#212121" d="M13.47 15.56V12.7h5.01v2.86l1.89-.65c.88-.3 1.46-1.13 1.46-2.05v-2.7l-.174.003.134-2.193c.04-.34.05-.68.02-1.02l-.07-.84H10.37l-.08.84c-.03.34-.02.68.01 1.02l.16 2.444-.34.006v2.44c0 .93.59 1.75 1.46 2.05l1.89.65Z"/><path fill="#F4C6AD" d="M12.5 10.5a1.5 1.5 0 1 1-3 0 1.5 1.5 0 0 1 3 0ZM22.5 10.5a1.5 1.5 0 1 1-3 0 1.5 1.5 0 0 1 3 0Z"/><path fill="#FFD7C2" d="M17.111 3.05h-2.23c-2.499 0-4.39 2.112-4.102 4.737l.379 5.813c.258 1.972 1.931 3.45 3.902 3.45h1.892c1.971 0 3.644-1.478 3.903-3.45l.358-5.813c.329-2.504-1.593-4.737-4.102-4.737Z"/><path fill="#990838" d="M16 13.646c-.55 0-1.07-.14-1.508-.374-.153-.085-.306.096-.214.245.367.588.999.983 1.722.983.724 0 1.356-.395 1.723-.982.092-.15-.071-.32-.214-.246a3.234 3.234 0 0 1-1.509.374Z"/><path fill="#212121" d="M12.274 8.658c.093.12.264.14.383.049l.096-.063a2.264 2.264 0 0 1 1.405-.292.274.274 0 0 0 .064-.544 2.812 2.812 0 0 0-1.75.366 1.985 1.985 0 0 0-.137.09l-.009.006-.003.002v.001h-.001a.274.274 0 0 0-.048.385ZM19.646 8.272l.002.002a.274.274 0 0 1-.336.432l-.095-.062a2.264 2.264 0 0 0-1.405-.292.274.274 0 0 1-.064-.544 2.812 2.812 0 0 1 1.75.366c.046.027.082.05.107.068l.038.028.003.002Z"/><path fill="#fff" d="M12.17 10.27c.15-.62.71-1.08 1.38-1.08.69 0 1.27.49 1.39 1.14a.23.23 0 0 1-.23.28h-2.27c-.18 0-.32-.17-.27-.34ZM19.8 10.27a1.417 1.417 0 0 0-2.77.07c-.03.15.08.28.23.28h2.27c.18 0 .31-.17.27-.35Z"/><path fill="#7D4533" d="M12.85 10.37c0-.5.41-.91.91-.91a.913.913 0 0 1 .88 1.15h-1.76a.986.986 0 0 1-.03-.24ZM19.12 10.37c0-.5-.41-.91-.91-.91a.913.913 0 0 0-.88 1.15h1.76c.02-.08.03-.16.03-.24Z"/><path fill="#000" d="M13.76 9.85a.516.516 0 0 1 .46.76h-.92a.516.516 0 0 1 .46-.76ZM18.21 9.85a.516.516 0 0 0-.46.76h.92a.516.516 0 0 0-.46-.76Z"/><path fill="#fff" d="M13.61 10.01a.16.16 0 1 1-.32 0 .16.16 0 0 1 .32 0ZM18.09 10.01a.16.16 0 1 1-.32 0 .16.16 0 0 1 .32 0Z"/><path fill="#E5AF93" d="m15.594 10.284-.567 1.75c-.117.358.16.716.556.716h.834c.395 0 .673-.358.556-.716l-.567-1.75c-.117-.379-.684-.379-.812 0Z"/><path fill="#E6E6E6" d="M10.57 2h10.82c1.69 0 2.53 2.04 1.34 3.23L22 6v1c.01.2-.2.38-.4.38H10.35c-.2 0-.35-.18-.35-.38V6l-.77-.77C8.04 4.04 8.88 2 10.57 2Z"/><path fill="#D3D3D3" d="M15.52 6.03v-2.4c0-.25.2-.46.46-.46.25 0 .46.2.46.46v2.4h-.92ZM13.39 6.03h-.91l-.8-2.28c-.1-.28.11-.57.41-.57.18 0 .35.12.41.29l.89 2.56ZM18.56 6.03h.91l.8-2.28c.1-.28-.11-.57-.41-.57-.18 0-.35.12-.41.29l-.89 2.56ZM20.31 21.61a.75.75 0 1 0 0-1.5.75.75 0 0 0 0 1.5ZM20.31 25.24a.75.75 0 1 0 0-1.5.75.75 0 0 0 0 1.5ZM20.31 28.88a.75.75 0 1 0 0-1.5.75.75 0 0 0 0 1.5Z"/><path fill="#F4C6AD" d="M27 23c.55 0 1 .41 1 .912V26h-2v-2.088c.01-.502.45-.912 1-.912Z"/><path fill="#F3C07B" d="M27.32 16.16a2 2 0 0 0-1.83-1.18 2 2 0 0 0-1.83 1.18 3.86 3.86 0 0 0 0 3.19c.15.33.39.61.67.82.27.19.44.5.44.84v6.96c0 .39.31.73.7.74.4.01.73-.32.73-.72V21c0-.33.17-.64.44-.84.29-.2.52-.48.67-.82.46-1.01.46-2.17.01-3.18Z"/><path fill="#F3AD61" d="M25.49 15.65c-.6 0-1.14.35-1.38.89-.34.76-.34 1.64 0 2.4.24.54.78.89 1.38.89.6 0 1.14-.35 1.38-.89.34-.76.34-1.64 0-2.4-.25-.54-.79-.89-1.38-.89Z"/><path fill="#FFD7C2" d="M23.51 25.5c.008-.4.327-.75.7-.75h2.997c.438 0 .793.39.793.87v3.51c0 .48-.355.87-.793.87H24.21c-.373 0-.692-.31-.7-.72-.01-.27.108-.51.3-.65a.74.74 0 0 1-.31-.62c0-.26.128-.49.31-.62a.74.74 0 0 1-.31-.62c0-.26.128-.49.31-.62a.79.79 0 0 1-.3-.65Z"/></svg>
